packages/foundations/assets/icons/functional/images/transportation/airplane_20.svg

<svg width="20" height="20" viewBox="0 0 20 20" fill="none" xmlns="http://www.w3.org/2000/svg">
<g clip-path="url(#clip0_187_818)">
<path fill-rule="evenodd" clip-rule="evenodd" d="M8.8082 3.54039C9.72565 4.45188 10.642 5.36426 11.5572 6.27753L11.865 6.18172C14.2214 5.4238 16.9804 6.22691 17.7983 8.07707C18.3879 9.41086 17.6333 10.8563 16.1432 11.3949L13.4455 12.2436L11.3331 16.1032C11.1842 16.3507 11.0134 16.5372 10.6827 16.7C9.19169 17.4344 8.14823 16.4221 8.14823 15.4002C8.14236 14.905 8.13778 14.4098 8.13449 13.9146L7.19898 14.2032C5.66992 14.7031 3.94286 14.0062 3.36517 12.3602C2.93235 11.1476 2.5008 9.93454 2.07052 8.72117C1.87792 8.07216 2.07052 7.32845 2.82133 6.9471C2.89566 6.90995 2.97143 6.87494 3.04864 6.84206C3.64333 6.57742 4.25018 6.7532 4.67281 7.14911L5.65949 8.12556L6.97815 7.71253L5.84177 5.38975C5.47783 4.53888 5.92174 3.44022 6.88846 3.20655C6.99795 3.17449 7.10793 3.14368 7.21842 3.11413C7.74008 2.9668 8.32495 3.05353 8.8082 3.54039ZM12.4703 8.08791C10.2067 8.79534 7.94472 9.50434 5.68429 10.2149C5.37037 10.3133 4.88492 10.3133 4.61349 9.90356C4.73399 10.2722 4.94642 10.8688 5.25078 11.6936C5.40201 12.1245 5.92073 12.5562 6.59411 12.2969C7.3404 12.0686 8.08574 11.8392 8.83011 11.6089C9.43215 11.4237 10.1157 11.8405 10.1242 12.5562C10.1303 13.0786 10.1344 13.6011 10.1365 14.1236L11.8839 10.9308C11.9666 10.7795 12.0484 10.6209 12.4621 10.4565C13.1177 10.2462 14.0863 9.94258 15.368 9.54563C15.9087 9.37982 16.0431 9.17815 15.9554 8.86793C15.8677 8.55771 15.3864 8.24457 14.8559 8.07281C14.2011 7.86079 13.2002 7.86079 12.4703 8.08791Z" fill="#1A1C1F"/>
</g>
<defs>
<clipPath id="clip0_187_818">
<rect width="20" height="20" fill="white"/>
</clipPath>
</defs>
</svg>

<svg xmlns="http://www.w3.org/2000/svg" width="20" height="20" fill="none"><g clip-path="url(#a)"><path fill="#1A1C1F" fill-rule="evenodd" d="M8.808 3.54q1.377 1.368 2.75 2.738l.307-.096c2.356-.758 5.115.045 5.933 1.895.59 1.334-.165 2.78-1.655 3.318l-2.698.849-2.112 3.86a1.43 1.43 0 0 1-.65.596c-1.491.734-2.535-.278-2.535-1.3q-.008-.742-.014-1.485l-.935.288c-1.53.5-3.256-.197-3.834-1.843L2.071 8.721c-.193-.649 0-1.393.75-1.774q.112-.055.228-.105c.594-.265 1.201-.089 1.624.307l.986.977 1.32-.413L5.841 5.39c-.364-.851.08-1.95 1.046-2.183q.165-.049.33-.093a1.56 1.56 0 0 1 1.59.426m3.662 4.548q-3.394 1.06-6.786 2.127c-.314.098-.8.098-1.07-.311q.18.552.637 1.79c.151.43.67.862 1.343.603q1.12-.342 2.236-.688a.997.997 0 0 1 1.294.947q.009.784.012 1.568l1.748-3.193c.083-.151.164-.31.578-.474q.984-.315 2.906-.911c.54-.166.675-.368.587-.678-.087-.31-.569-.623-1.1-.795-.654-.212-1.655-.212-2.385.015" clip-rule="evenodd"/></g><defs><clipPath id="a"><path fill="#fff" d="M0 0h20v20H0z"/></clipPath></defs></svg>
